Numix-GalliumOS/16/mimetypes/gdsheet.svg

<?xml version="1.0" encoding="UTF-8" standalone="no"?>
<svg
   xmlns:dc="http://purl.org/dc/elements/1.1/"
   xmlns:cc="http://creativecommons.org/ns#"
   xmlns:rdf="http://www.w3.org/1999/02/22-rdf-syntax-ns#"
   xmlns:svg="http://www.w3.org/2000/svg"
   xmlns="http://www.w3.org/2000/svg"
   xmlns:sodipodi="http://sodipodi.sourceforge.net/DTD/sodipodi-0.dtd"
   xmlns:inkscape="http://www.inkscape.org/namespaces/inkscape"
   width="16"
   height="16"
   viewBox="0 0 16 16"
   id="svg2"
   version="1.1"
   inkscape:version="0.91 r13725"
   sodipodi:docname="gdsheet.svg">
  <metadata
     id="metadata16">
    <rdf:RDF>
      <cc:Work
         rdf:about="">
        <dc:format>image/svg+xml</dc:format>
        <dc:type
           rdf:resource="http://purl.org/dc/dcmitype/StillImage" />
      </cc:Work>
    </rdf:RDF>
  </metadata>
  <defs
     id="defs14" />
  <sodipodi:namedview
     pagecolor="#ffffff"
     bordercolor="#666666"
     borderopacity="1"
     objecttolerance="10"
     gridtolerance="10"
     guidetolerance="10"
     inkscape:pageopacity="0"
     inkscape:pageshadow="2"
     inkscape:window-width="1280"
     inkscape:window-height="998"
     id="namedview12"
     showgrid="true"
     inkscape:zoom="14.75"
     inkscape:cx="-6.1603911"
     inkscape:cy="5.4809277"
     inkscape:window-x="0"
     inkscape:window-y="0"
     inkscape:window-maximized="1"
     inkscape:current-layer="svg2">
    <inkscape:grid
       type="xygrid"
       id="grid3004" />
  </sodipodi:namedview>
  <path
     style="fill:#13a553;fill-opacity:1"
     d="M 2.667969,-4.456e-4 C 2.324219,-4.456e-4 2,0.3378124 2,0.6964471 L 2,15.303108 C 2,15.641365 2.34375,16 2.667969,16 l 10.664062,0 C 13.65625,16 14,15.641365 14,15.303108 L 14,3.9995542 10,-4.456e-4 z"
     id="path4-2"
     inkscape:connector-curvature="0"
     sodipodi:nodetypes="ssssssccs" />
  <path
     style="fill:#000000;fill-opacity:0.19599998"
     d="m 10.583223,3.3315852 0.0154,0.01953 0.04005,-0.01953 z m 0.02978,0.667969 3.387,3.664062 0,-3.664062 z"
     id="path6-3"
     inkscape:connector-curvature="0"
     sodipodi:nodetypes="cccccccc" />
  <path
     style="fill:#ffffff;fill-opacity:0.39200003"
     d="m 10,-4.456e-4 3.996396,3.9999998 -3.383784,0 C 10.313513,3.9995542 10,3.6824372 10,3.3833382 z"
     id="path8-2"
     inkscape:connector-curvature="0"
     sodipodi:nodetypes="ccssc" />
  <path
     style="fill:#f9f9f9;fill-opacity:1"
     d="m 12,6 c 0,2.5814587 0,4.762162 0,7 -2.8089089,0 -5.5709268,0 -8.0000005,0 0,-2.58146 5e-7,-4.7621631 5e-7,-7 2.776085,0 5.6225086,0 8,0 z M 11,7 8,7 8,8 11,8 z M 7,7 4.9976546,7 5,8.0535894 l 2.0023454,0 z m 4,2 -3,0 0,1 3,0 z m -4,0 -2,0 0,1 2,0 z m 4,2 -3,0 0,1 3,0 z m -4,0 -2,0 0,1 2,0 z"
     id="path10"
     inkscape:connector-curvature="0"
     sodipodi:nodetypes="ccccccccccccccccccccccccccccccccccc" />
</svg>

<svg xmlns="http://www.w3.org/2000/svg" viewBox="0 0 16 16">
 <path d="m 2.668 0 c -0.344 0 -0.668 0.338 -0.668 0.697 l 0 14.607 c 0 0.338 0.344 0.697 0.668 0.697 l 10.664 0 c 0.324 0 0.668 -0.359 0.668 -0.697 l 0 -11.304 -4 -4 z" style="fill:#13a553;fill-opacity:1"/>
 <path d="m 10.583 3.332 0.015 0.02 0.04 -0.02 z m 0.03 0.668 3.387 3.664 0 -3.664 z" style="fill:#000;fill-opacity:0.196"/>
 <path d="m 10 0 3.996 4 -3.384 0 c -0.299 0 -0.613 -0.317 -0.613 -0.616 z" style="fill:#fff;fill-opacity:0.392"/>
 <path d="m 12 6 c 0 2.581 0 4.762 0 7 -2.809 0 -5.571 0 -8 0 0 -2.581 0 -4.762 0 -7 2.776 0 5.623 0 8 0 z m -1 1 -3 0 0 1 3 0 z m -4 0 -2 0 0.002 1.054 l 2 0 z m 4 2 -3 0 0 1 3 0 z m -4 0 -2 0 0 1 2 0 z m 4 2 -3 0 0 1 3 0 z m -4 0 -2 0 0 1 2 0 z" style="fill:#f9f9f9;fill-opacity:1"/>
</svg>
